Obsidian/actions/16s/format-segment-curve.svg

<svg height="16" viewBox="0 0 16 16" width="16" xmlns="http://www.w3.org/2000/svg"><path d="m12 1v1 .1816406a12 12 0 0 0 -9.8300781 9.8183594h-.1699219-1v3h3v-3h-.8085938a11 11 0 0 1 8.8085938-8.8105469v.8105469h3v-3z" fill="#bebebe"/></svg>

<svg xmlns="http://www.w3.org/2000/svg" width="16" height="16" viewBox="0 0 16 16">
 <defs>
  <style id="current-color-scheme" type="text/css">
   .ColorScheme-Text { color:#bebebe; } .ColorScheme-Highlight { color:#4285f4; }
  </style>
 </defs>
 <path style="fill:currentColor" class="ColorScheme-Text" d="M 12 1 L 12 2 L 12 2.1816406 A 12 12 0 0 0 2.1699219 12 L 2 12 L 1 12 L 1 15 L 4 15 L 4 12 L 3.1914062 12 A 11 11 0 0 1 12 3.1894531 L 12 4 L 15 4 L 15 1 L 12 1 z"/>
</svg>
